usr/share/icons/biglinux-icons-material/16/actions/office-chart-scatter.svg

<svg xmlns="http://www.w3.org/2000/svg" viewBox="0 0 16 16"><path d="M2 2v12h12v-1H3V2H2zm2 0v1h1V2H4zm2 0v1h1V2H6zm6 1v1h1V3h-1zm1 1v1h1V4h-1zm0 1h-1v1h1V5zm-1 0V4h-1v1h1zM4 4v1h1V4H4zm2 0v1h1V4H6zm3 3v1h1V7H9zm2 0v1h1V7h-1zM5 9v1h1V9H5zm1 1v1h1v-1H6zm0 1H5v1h1v-1zm-1 0v-1H4v1h1zm4-2v1h1V9H9zm2 0v1h1V9h-1z" style="fill:currentColor;fill-opacity:1;stroke:none;color:#dedede"/></svg>

<svg xmlns="http://www.w3.org/2000/svg" viewBox="0 0 16 16">
  <defs id="defs3051">
    <style type="text/css" id="current-color-scheme">
      .ColorScheme-Text {
        color:#dedede;
      }
      </style>
  </defs>
 <path style="fill:currentColor;fill-opacity:1;stroke:none" 
     d="M 2 2 L 2 13 L 2 14 L 3 14 L 14 14 L 14 13 L 3 13 L 3 2 L 2 2 z M 4 2 L 4 3 L 5 3 L 5 2 L 4 2 z M 6 2 L 6 3 L 7 3 L 7 2 L 6 2 z M 12 3 L 12 4 L 13 4 L 13 3 L 12 3 z M 13 4 L 13 5 L 14 5 L 14 4 L 13 4 z M 13 5 L 12 5 L 12 6 L 13 6 L 13 5 z M 12 5 L 12 4 L 11 4 L 11 5 L 12 5 z M 4 4 L 4 5 L 5 5 L 5 4 L 4 4 z M 6 4 L 6 5 L 7 5 L 7 4 L 6 4 z M 9 7 L 9 8 L 10 8 L 10 7 L 9 7 z M 11 7 L 11 8 L 12 8 L 12 7 L 11 7 z M 5 9 L 5 10 L 6 10 L 6 9 L 5 9 z M 6 10 L 6 11 L 7 11 L 7 10 L 6 10 z M 6 11 L 5 11 L 5 12 L 6 12 L 6 11 z M 5 11 L 5 10 L 4 10 L 4 11 L 5 11 z M 9 9 L 9 10 L 10 10 L 10 9 L 9 9 z M 11 9 L 11 10 L 12 10 L 12 9 L 11 9 z "
     class="ColorScheme-Text"
     />
</svg>
